svg/other/blessing_fill.svg

<?xml version="1.0" encoding="UTF-8"?>
<svg width="24px" height="24px" viewBox="0 0 24 24" version="1.1" xmlns="http://www.w3.org/2000/svg" xmlns:xlink="http://www.w3.org/1999/xlink">
    <title>blessing_fill</title>
    <g id="Icon" stroke="none" stroke-width="1" fill="none" fill-rule="evenodd">
        <g id="Business" transform="translate(-145.000000, -528.000000)" fill-rule="nonzero">
            <g id="blessing_fill" transform="translate(145.000000, 528.000000)">
                <path d="M24,0 L24,24 L0,24 L0,0 L24,0 Z M12.5935,23.2578 L12.5819,23.2595 L12.5109,23.295 L12.4919,23.2987 L12.4767,23.295 L12.4057,23.2595 C12.3958,23.2564 12.387,23.259 12.3821,23.2649 L12.378,23.2758 L12.3609,23.7031 L12.3659,23.7235 L12.3769,23.7357 L12.4805,23.8097 L12.4953,23.8136 L12.5071,23.8097 L12.6107,23.7357 L12.6233,23.7197 L12.6267,23.7031 L12.6096,23.2758 C12.6076,23.2657 12.601,23.2593 12.5935,23.2578 Z M12.8584,23.1453 L12.8445,23.1473 L12.6598,23.2397 L12.6499,23.2499 L12.6472,23.2611 L12.6651,23.6906 L12.6699,23.7034 L12.6784,23.7105 L12.8793,23.8032 C12.8914,23.8069 12.9022,23.803 12.9078,23.7952 L12.9118,23.7812 L12.8777,23.1665 C12.8753,23.1546 12.8674,23.147 12.8584,23.1453 Z M12.143,23.1473 C12.1332,23.1424 12.1222,23.1453 12.1156,23.1526 L12.1099,23.1665 L12.0758,23.7812 C12.0751,23.7927 12.0828,23.8019 12.0926,23.8046 L12.1083,23.8032 L12.3092,23.7105 L12.3186,23.7024 L12.3225,23.6906 L12.3404,23.2611 L12.3372,23.2485 L12.3278,23.2397 L12.143,23.1473 Z" id="MingCute"></path>
                <path d="M13.287092,2.69063704 L13.4143,2.80747 L21.1925,10.5856 C21.9323947,11.3255895 21.9713366,12.5010493 21.3093255,13.2868778 L21.1925,13.4141 L13.4143,21.1922 C12.6744053,21.9321895 11.4988607,21.9711363 10.713108,21.3090404 L10.5859,21.1922 L2.80771,13.4141 C2.06776789,12.6741105 2.02882357,11.4986507 2.69087704,10.7128222 L2.80771,10.5856 L10.5859,2.80747 C11.2846895,2.10863579 12.3720679,2.03507429 13.1526655,2.58678551 L13.287092,2.69063704 Z M12.3859,7.7553 C12.1305,8.05069 11.9708,8.31327 11.9069,8.73995 C11.843,9.16664 11.9708,9.59332 12.1305,9.79025 C12.27015,9.96256375 12.4588,10.0594558 12.6749455,10.0370395 L12.7692,10.02 C12.8626,9.99599333 12.8535111,10.0466178 12.7981704,10.1397756 L12.6875,10.3074 C12.5794,10.4649 12.4436,10.6628 12.3859,10.8406 C12.2582,11.2344 12.4498,11.497 12.7053,11.497 C12.7776333,11.497 12.8448556,11.4830444 12.9047741,11.4662148 L12.9889,11.4402 C13.0946,11.4059 13.1657,11.3829 13.1843,11.4642 C13.19135,11.4949 13.112375,11.57115 12.9873875,11.6700125 L12.8178773,11.7980335 L12.8178773,11.7980335 L12.5144,12.0115 L12.5144,12.0115 L12.4337074,12.0615185 L12.4337074,12.0615185 L12.2401,12.165 L12.2401,12.165 C11.9884,12.2948 11.6977,12.4447 11.6107,12.6595 C11.4765,12.9908 11.6899,13.3103 12.1816,13.5524 L12.3222676,13.6157878 L12.3222676,13.6157878 L12.4546,13.6639 L12.4546,13.6639 L12.448484,13.6682137 L12.4032613,13.6879504 C12.3495563,13.7149875 12.25965,13.7758625 12.1624,13.9258 C11.8658143,14.3829357 12.1200306,14.6702954 12.2857252,14.7616176 L12.3221,14.7792 C12.45,14.8318 12.3319,14.8844 12.1304,14.8013 C11.95168,14.5861 11.840288,14.375508 11.753472,14.1905672 L11.6923,14.057 C11.6065,13.867 11.5379,13.7152 11.4279,13.6304 C11.1724,13.4335 10.9638,13.6953 10.9489,13.8602 L10.9279366,14.0237088 C10.9112722,14.2074611 10.9316333,14.49435 11.2363,14.9761 C11.6514,15.6325 12.2974,16.0438 12.8011,16.3546 C13.3048,16.6655 13.7904,16.4355 14.1104,16.0592 L14.5482783,15.5531329 L14.5482783,15.5531329 L14.7864054,15.2645028 L14.7864054,15.2645028 L15.0485875,14.9280625 C15.365475,14.50795 15.7156,13.99175 16.0434,13.3848 C16.5336655,12.4771241 16.0786776,12.1003029 15.442238,11.9329708 L15.2361163,11.8867179 L15.2361163,11.8867179 L15.0232765,11.8521433 L15.0232765,11.8521433 L14.8090637,11.8269981 L14.8090637,11.8269981 L14.3979,11.796 L14.3979,11.796 C14.0708,11.7769 13.6501,11.8356 13.2352,11.9342 L13.5913381,11.7851006 L13.5913381,11.7851006 L13.778951,11.6979822 C13.8598906,11.6576938 13.9197875,11.6228 13.9508,11.5955 C14.1743,11.3985 14.2062,11.0047 13.7911,10.8077 L13.5638429,10.6953222 L13.5638429,10.6953222 L13.4097122,10.6104569 L13.4097122,10.6104569 L13.1524,10.4467 L13.1524,10.4467 C12.9927,10.3482 12.9927,10.0528 13.344,9.88872 C13.4541,9.83727 13.5895125,9.81296625 13.7323078,9.79533516 L13.8769,9.77917 C14.1475,9.75048 14.4231,9.72125 14.5895,9.5605 C14.8754,9.28428 14.9727,8.77277 14.3979,8.5102 C14.1726143,8.40731429 13.9277367,8.40017347 13.7151624,8.41571997 L13.3216959,8.45759571 C13.2081551,8.46565286 13.1421143,8.45299571 13.1524,8.37891 L13.1707,8.28331125 L13.1707,8.28331125 L13.1962,8.18058 C13.2464,7.98501 13.3018,7.76895 13.1843,7.62401 C13.0246,7.42708 12.6414,7.4599 12.3859,7.7553 Z M10.2463,10.381 C10.02322,10.3953429 9.6464551,10.6773102 9.28274863,10.996558 L9.01502259,11.2393848 L9.01502259,11.2393848 L8.3624944,11.868916 L8.3624944,11.868916 L8.29824,11.9237 L8.29824,11.9237 C8.263206,11.945 8.2513956,11.93138 8.24902584,11.9022584 L8.2570196,11.745524 C8.2545728,11.708552 8.241722,11.68382 8.20244,11.6939 C8.0747,11.7267 7.78728,12.0878 7.75535,12.3175 C7.72341,12.5473 7.83425,12.803 8.1705,13.0068 C8.46939778,13.1879556 8.74158148,13.1508 9.00023388,12.9558743 L9.14453,12.8311 L9.14453,12.8311 L9.28042101,12.7065364 L9.28042101,12.7065364 L9.38514608,12.6169412 L9.38514608,12.6169412 L9.48913995,12.5379673 C9.63942406,12.4342711 9.75242188,12.4123125 9.67145,12.6786 C9.633925,12.802 9.55583,12.968925 9.456235,13.1597625 L9.29310125,13.4615016 L9.29310125,13.4615016 L8.80495652,14.3375396 C8.64428094,14.6368063 8.5108075,14.9117125 8.45792,15.1074 C8.29824,15.6982 9.06469,16.0264 9.32017,15.6654 L9.47099374,15.4508349 L9.47099374,15.4508349 L9.54818296,15.3486446 C9.66936124,15.1990937 9.75127078,15.166177 9.76516195,15.441924 L9.76726,15.5341 C9.76726,16.0921 9.95887,16.5187 10.3102,16.4859 C10.6614,16.4531 10.7573,16.2233 10.7892,15.9279 L10.8025075,15.7632032 L10.8025075,15.7632032 L10.8263704,15.2346852 L10.8263704,15.2346852 L10.885,13.5319 L10.885,13.5319 C10.8968222,13.2135889 10.9217802,12.941421 10.9518587,12.7061167 L10.9998148,12.3796481 L10.9998148,12.3796481 L11.073,11.9784 C11.1297,11.6846 11.1694,11.4785 11.1405,11.3001 C11.0766,10.9062 10.7573,10.3482 10.2463,10.381 Z M13.572,15.0375 L13.5037,15.1074 C13.131,15.4083 12.8914,15.4812 12.5077,15.1745 C12.85786,15.18866 13.1949,14.972292 13.359588,14.8423752 L13.4483,14.7661 L13.4483,14.7661 C13.4883,14.726975 13.5166984,14.774725 13.5385734,14.8585688 L13.5620172,14.9732563 C13.5655109,14.994175 13.568825,15.015725 13.572,15.0375 Z M13.1024,13.9651 C13.1782,14.0865 13.0699,14.291 12.8605,14.4218 C12.6511,14.5527 12.4198,14.5604 12.344,14.439 C12.2681,14.3177 12.3764,14.1132 12.5859,13.9823 C12.7953,13.8514 13.0265,13.8437 13.1024,13.9651 Z M14.5575,12.8755 C15.0029914,12.92126 15.0298043,13.1181129 14.9505148,13.3504158 L14.9034753,13.468986 L14.9034753,13.468986 L14.813,13.6632 C14.7214,13.8598 14.4557,14.1825 14.1611,14.4896 L14.0508,14.346 C13.9171714,14.1739714 13.880449,14.1267673 13.9028484,14.0393335 L13.9188,13.9915 C13.9827,13.8273 14.0466,13.4991 13.7911,13.1709 C13.6698636,13.0151909 13.5702074,13.1106686 13.4875923,13.2515714 L13.4287551,13.3625506 L13.4287551,13.3625506 L13.3433872,13.5335408 C13.31614,13.581836 13.2916,13.61234 13.2694,13.6076 L13.1742031,13.5893094 C13.0480625,13.56875 12.830375,13.54805 12.6164,13.6061 C12.7082,13.5705 12.7936,13.5167222 12.8769852,13.4567963 L13.0011,13.3638 C13.1,13.2882 13.1991,13.2123 13.3063,13.1568 C13.6423,12.9836 14.004,12.8186 14.5575,12.8755 Z M9.61703015,9.24033719 L9.67145,9.2651 C9.93768667,9.36771533 9.79641684,9.65746658 9.58195224,9.95324703 L9.45972195,10.1140912 L9.45972195,10.1140912 L9.19688488,10.442936 C9.135064,10.52318 9.086872,10.5923 9.06469,10.6436 C9.158965,10.60325 9.259045,10.5429875 9.37062953,10.4712078 L9.48626,10.3959 C9.7727875,10.2080375 10.1358928,9.97006484 10.6534879,9.79530602 L10.885,9.72461 C11.843,9.46203 11.5237,8.14916 10.1185,8.01787 C8.76358214,7.89126893 9.13091749,8.98544531 9.61703015,9.24033719 L9.61703015,9.24033719 Z" id="形状" fill="#09244B"></path>
            </g>
        </g>
    </g>
</svg>

<svg xmlns="http://www.w3.org/2000/svg" width="24" height="24"><g fill="none" fill-rule="nonzero"><path d="M24 0v24H0V0h24ZM12.594 23.258l-.012.002-.071.035-.02.004-.014-.004-.071-.036c-.01-.003-.019 0-.024.006l-.004.01-.017.428.005.02.01.013.104.074.015.004.012-.004.104-.074.012-.016.004-.017-.017-.427c-.002-.01-.009-.017-.016-.018Zm.264-.113-.014.002-.184.093-.01.01-.003.011.018.43.005.012.008.008.201.092c.012.004.023 0 .029-.008l.004-.014-.034-.614c-.003-.012-.01-.02-.02-.022Zm-.715.002a.023.023 0 0 0-.027.006l-.006.014-.034.614c0 .012.007.02.017.024l.015-.002.201-.093.01-.008.003-.011.018-.43-.003-.012-.01-.01-.184-.092Z"/><path fill="#09244B" d="m13.287 2.69.127.117 7.778 7.779a2 2 0 0 1 .117 2.7l-.117.128-7.778 7.778a2 2 0 0 1-2.7.117l-.128-.117-7.778-7.778a2 2 0 0 1-.117-2.701l.117-.127 7.778-7.779a2 2 0 0 1 2.567-.22l.134.104Zm-.901 5.065c-.255.296-.415.558-.48.985-.063.427.065.853.224 1.05.14.173.329.27.545.247l.094-.017c.094-.024.085.027.03.12l-.111.167c-.109.158-.244.356-.302.534-.128.393.064.656.32.656.072 0 .139-.014.199-.03l.084-.027c.106-.034.177-.057.195.024.007.03-.072.107-.197.206l-.17.128-.303.213-.08.05-.194.104c-.252.13-.542.28-.63.495-.133.33.08.65.572.892l.14.064.133.048-.007.004-.045.02a.639.639 0 0 0-.24.238c-.297.457-.043.744.123.836l.036.017c.128.053.01.105-.192.022a2.75 2.75 0 0 1-.377-.61l-.06-.134c-.086-.19-.155-.342-.265-.427-.256-.197-.464.065-.48.23l-.02.164c-.017.183.004.47.308.952.415.656 1.061 1.068 1.565 1.379.504.31.99.08 1.31-.296l.437-.506.238-.288.263-.337c.316-.42.667-.936.994-1.543.49-.908.036-1.285-.6-1.452l-.207-.046-.213-.035-.214-.025-.411-.031c-.327-.02-.748.04-1.163.138l.356-.149.188-.087c.08-.04.14-.075.172-.103.223-.197.255-.59-.16-.787l-.227-.113-.154-.085-.258-.163c-.16-.099-.16-.394.192-.558.11-.052.246-.076.388-.094l.145-.016c.27-.029.546-.058.712-.219.286-.276.384-.787-.191-1.05-.225-.103-.47-.11-.683-.094l-.393.042c-.114.008-.18-.005-.17-.08l.019-.095.025-.102c.05-.196.106-.412-.012-.557-.16-.197-.543-.164-.798.131Zm-2.14 2.626c-.223.014-.6.296-.963.616l-.268.242-.653.63-.064.055c-.035.021-.047.007-.049-.022l.008-.156c-.002-.037-.015-.062-.055-.052-.127.033-.415.394-.447.624-.032.23.08.485.416.689.298.181.57.144.83-.051l.144-.125.135-.124.105-.09.104-.079c.15-.104.263-.126.182.14-.037.124-.115.29-.215.482l-.163.302-.488.876c-.16.299-.294.574-.347.77-.16.59.607.918.862.557l.151-.214.077-.102c.121-.15.203-.183.217.093l.002.092c0 .558.192.985.543.952.351-.033.447-.263.48-.558l.013-.165.023-.528.059-1.703c.012-.318.037-.59.067-.826L11 12.38l.073-.402c.057-.293.096-.5.067-.678-.063-.394-.383-.952-.894-.919Zm3.326 4.656-.068.07c-.373.301-.613.374-.996.068.35.014.687-.203.852-.333l.088-.076c.04-.039.069.009.09.093l.024.114.01.064Zm-.47-1.072c.076.121-.032.326-.242.457-.209.13-.44.138-.516.017-.076-.121.032-.326.242-.457.21-.13.44-.138.516-.017Zm1.455-1.09c.446.046.473.243.394.475l-.048.119-.09.194c-.092.197-.357.52-.652.827l-.11-.144c-.134-.172-.17-.22-.148-.307l.016-.047a.821.821 0 0 0-.128-.821c-.121-.156-.22-.06-.303.08l-.06.112-.085.17c-.027.049-.051.08-.074.075l-.095-.019a1.362 1.362 0 0 0-.558.017c.092-.036.178-.09.261-.15l.124-.092c.099-.076.198-.152.305-.207.336-.173.698-.338 1.252-.281ZM9.618 9.24l.054.025c.267.103.125.392-.089.688l-.122.161-.263.329a1.1 1.1 0 0 0-.132.2c.094-.04.194-.1.306-.172l.115-.075c.287-.188.65-.426 1.167-.6l.232-.071c.958-.263.639-1.576-.767-1.707-1.354-.127-.987.967-.501 1.222Z"/></g></svg>
